X:1
T: The Honourable Colonel Wemyss
C:
R:Reel
Q: 232
K:F
M:4/4
L:1/8
|:C|F2 AF AB cf|AF cF EG GA|F2 AF AB cA|df eg fF FC|
F2 AF AB cf|AF cF EG GA|F2 AF AB cA|df eg fF Fg|
a1/2g1/2f1/2e1/2 fc AB cf|AF cF EG Gg|fe fc AB cA|df eg fF Fg|
af ge fd cB|AF cF EG GB|AF cA Bc de|fc dB AF F:|
